X: 122
T: Er guniang liaobing
%%abc-version 2.0
%%abcx-abcm2ps-target-version 5.9.1 (29 Sep 2008)
%%abc-creator hum2abc beta
%%abcx-conversion-date 2013/10/02 07:52:29
%%abc-edited-by Helmut Schaffrath
%%humdrum-veritas 2310170789
%%humdrum-veritas-data 1755451320
%%continueall 1
%%barnumbers 0
L: 1/16
M: 2/4
K: F
c2 c2 B2 c2 [I:setbarnb 1]| 
f2> d2 B2 G2 | 
c2 d f B2 B G | 
G B A2G4 | 
G2 G2 F2 G2 | 
c f d c B c G2 | 
c2 d f B2 B G | 
G F E2F4 | 
G B G F G2 z2 | 
c4E4 | 
G2 G B G F E2 | 
C2 B,2C4 |]  



